lib/svgs/update-file.svg

<?xml version="1.0" encoding="UTF-8" standalone="no"?>
<svg width="20px" height="20px" viewBox="0 0 20 20" version="1.1" xmlns="http://www.w3.org/2000/svg" xmlns:xlink="http://www.w3.org/1999/xlink">
    <defs></defs>
    <g id="Icons" stroke="none" stroke-width="1" fill="none" fill-rule="evenodd">
        <g id="Web" transform="translate(-241.000000, -1564.000000)" fill="#000000">
            <g id="file/update-file" transform="translate(241.000000, 1564.000000)">
                <path d="M16.331,7.307 L11.493,2.469 C11.193,2.169 10.786,2 10.361,2 L5.6,2 C4.72,2 4,2.72 4,3.6 L4,16.4 C4,17.28 4.72,18 5.6,18 L15.2,18 C16.08,18 16.8,17.28 16.8,16.4 L16.8,8.439 C16.8,8.014 16.631,7.607 16.331,7.307 M15.2,16.8 L5.6,16.8 C5.383,16.8 5.2,16.617 5.2,16.4 L5.2,3.6 C5.2,3.383 5.383,3.2 5.6,3.2 L10.001,3.2 L10.001,7.083 C10.001,8 10.751,8.75 11.668,8.75 L15.6,8.75 L15.6,16.4 C15.6,16.617 15.417,16.8 15.2,16.8 M11.201,3.874 L14.877,7.55 L11.668,7.55 C11.415,7.55 11.201,7.336 11.201,7.083 L11.201,3.874 M12.8503,12.2124 L11.5833,12.2124 C11.2523,12.2124 10.9833,12.4814 10.9833,12.8124 C10.9833,13.1434 11.2523,13.4124 11.5833,13.4124 L12.1443,13.4124 C11.8913,14.1654 11.1873,14.7124 10.3503,14.7124 C9.9123,14.7124 9.5003,14.5674 9.1603,14.2934 C8.9003,14.0864 8.5243,14.1274 8.3163,14.3844 C8.1083,14.6424 8.1493,15.0204 8.4073,15.2284 C8.9553,15.6704 9.6453,15.9124 10.3503,15.9124 C12.0593,15.9124 13.4503,14.5214 13.4503,12.8124 C13.4503,12.4814 13.1823,12.2124 12.8503,12.2124 M9.8161,12.8125 C9.8161,12.4805 9.5471,12.2125 9.2161,12.2125 L8.6561,12.2125 C8.9091,11.4595 9.6131,10.9125 10.4501,10.9125 C10.8881,10.9125 11.3001,11.0575 11.6401,11.3315 C11.8981,11.5395 12.2761,11.4985 12.4841,11.2405 C12.6921,10.9825 12.6511,10.6045 12.3931,10.3965 C11.8451,9.9555 11.1551,9.7125 10.4501,9.7125 C8.7401,9.7125 7.3501,11.1035 7.3501,12.8125 C7.3501,13.1435 7.6181,13.4125 7.9501,13.4125 L9.2161,13.4125 C9.5471,13.4125 9.8161,13.1435 9.8161,12.8125" id="Shape"></path>
            </g>
        </g>
    </g>
</svg>

<svg xmlns="http://www.w3.org/2000/svg" viewBox="0 0 20 20">
    <path fill="#000" fill-rule="evenodd" d="M16.331 7.307l-4.838-4.838A1.6 1.6 0 0 0 10.361 2H5.6C4.72 2 4 2.72 4 3.6v12.8c0 .88.72 1.6 1.6 1.6h9.6c.88 0 1.6-.72 1.6-1.6V8.439a1.6 1.6 0 0 0-.469-1.132M15.2 16.8H5.6a.405.405 0 0 1-.4-.4V3.6c0-.217.183-.4.4-.4h4.401v3.883c0 .917.75 1.667 1.667 1.667H15.6v7.65c0 .217-.183.4-.4.4M11.201 3.874l3.676 3.676h-3.209a.473.473 0 0 1-.467-.467V3.874m1.65 8.338h-1.268a.6.6 0 0 0 0 1.2h.561a1.896 1.896 0 0 1-2.984.881.6.6 0 0 0-.753.935 3.103 3.103 0 0 0 5.043-2.416.6.6 0 0 0-.6-.6m-3.034.6a.6.6 0 0 0-.6-.6h-.56a1.896 1.896 0 0 1 2.984-.88.6.6 0 0 0 .753-.936 3.103 3.103 0 0 0-5.043 2.416.6.6 0 0 0 .6.6h1.266a.6.6 0 0 0 .6-.6"/>
</svg>
